Catalina-light/actions/22/color-picker-grey.svg

<svg xmlns="http://www.w3.org/2000/svg" viewBox="0 0 22 22">
  <defs id="defs3051">
    <style type="text/css" id="current-color-scheme">
      .ColorScheme-Text {
        color:#4d4d4d
      }
      </style>
  </defs>
      <path
         style="fill:currentColor;fill-opacity:1;stroke:none"
         class="ColorScheme-Text"
         d="M 9.71875 3 C 9.5912292 3 9.4651248 3.0629165 9.3925781 3.1894531 L 4.9980469 10.851562 C 4.0749336 12.471236 4.0036336 14.529432 4.9980469 16.263672 C 6.4929134 18.870705 9.8187348 19.77223 12.425781 18.277344 C 15.032821 16.782484 15.93434 13.458629 14.439453 10.851562 L 10.046875 3.1894531 C 9.9743183 3.0629165 9.8462708 3 9.71875 3 z "
         />
      <path
         style="fill:currentColor;fill-opacity:0.4;stroke:none"
         class="ColorScheme-Text"
         d="M 15.386719 3 C 14.094052 3 13.054688 4.0413178 13.054688 5.3339844 C 13.054688 6.626651 14.094052 7.6660156 15.386719 7.6660156 C 16.679385 7.6660156 17.720703 6.626651 17.720703 5.3339844 C 17.720703 4.0413178 16.679385 3 15.386719 3 z "
          />
</svg>

<svg viewBox="0 0 22 22" xmlns="http://www.w3.org/2000/svg">
<defs>
<style id="current-color-scheme" type="text/css">.ColorScheme-Text {
        color:#363636
      }</style>
</defs>
<path class="ColorScheme-Text" d="m9.7188 3c-0.12752 0-0.25363 0.062916-0.32617 0.18945l-4.3945 7.6621c-0.92311 1.6197-0.99441 3.6779 0 5.4121 1.4949 2.607 4.8207 3.5086 7.4277 2.0137 2.607-1.4949 3.5086-4.8187 2.0137-7.4258l-4.3926-7.6621c-0.072557-0.12654-0.2006-0.18945-0.32812-0.18945z" fill="#363636"/>
<path class="ColorScheme-Text" d="m15.387 3c-1.2927 0-2.332 1.0413-2.332 2.334s1.0394 2.332 2.332 2.332c1.2927 0 2.334-1.0394 2.334-2.332s-1.0413-2.334-2.334-2.334z" fill="#363636" fill-opacity=".4"/>
</svg>
